X:1
T:Dewy Morning, The
M:3/4
L:1/8
R:Air
N:"Andante"
S:Stanford/Petrie (1905), No. 454
Z:AK/Fiddler's Companion
K:Fmin
C/=E/ FF/G/ | B>A GE/F/ AB/d/ | cF FE/F/ A{A}c | B>A GA/G/ FF |
E3 C/=E/ FF/G/ | B>A GE/F/ AB/d/ | cF FE/F/ Ac | B>A GA/G/ FF | F3 ||
(A/B/) c=d/=e/ | f2 ee/d/ cd/f/ | e2 GA/B/ cc | B>A GA/G/ FF | E3 (C/=E/) FF/G/ |
BA GE/F/ AB/d/ | cF FE/F/ Ac | B>A GA/G/ FF | F3 ||

